X:274
T:Reel 274
M:4/4
K:Amaj
L:1/8
A,>C (3CB,C ECCE| (3FGA EC DCB,A,G,A,|A,CEA FDED|CDB,C A,2:|EFGAEC EFD| (3FGA E>C  (3A,B,C E2|F>D (3DCD G>B, (3B,A,D |D>B, (3B,B,B, D2C2| (3EFG E>C  (3CDC F>C (3CB,C |F>F (3FGF F>A (3AGA |GFGA EDCB,| (3A,B,A, CB, A,DCD|
